!!!!SEGMENT: pl-wnifc--6432-n--009_nowakowski-jozef--anglez-no-9.krn
!!!cenid: 18xx:3932
!!!COM: Nowakowski, Józef
!!!COM-rismID: pe175316
!!!CDT: 1880/09/16-1865/08/27
!!!CNT: Polish
!!!OTL: Anglez No. 9
!!!PDT: 1825
!!!AGN:
!!!SMS-siglum: PL-Wnifc
!!!SMS-shelfmark: 6432/n
!!!SMS-shelfwork: 009 W
!!!SMS-variant:
!!!SMS-altvar:
!!!NIFC-rismSourceID: 1001134751
!!!NIFC-islandoraID: nifc:212700
!!!URL-pdf-islandora: https://repozytorium.nifc.pl/islandora/object/nifc%3A212700/datastream/PDF/view
!!!URL-scan: https://polish.musicsources.pl/pl/lokalizacje/galeria/druki-muzyczne/16851 @EN{Scan on Polish Music Sources Website} @PL{Skany w portalu Dziedzictwo Muzyki Polskiej w otwartym dostępie}
!!!ONB-nifc: UWAGA: w źródle 5 Mazurów (001-005), 4 Anglezy (006-009), 2 Walce (010-011) i Fantaisie Valse (012).
!!!AIN: 2 piano
!!!key: D
**kern	**kern	**dynam
*part2	*part1	*part1
*staff2	*staff1	*
*I"Piano	*I"Piano	*
*I'P-no	*I'P-no	*
*Ipiano	*Ipiano	*
*ICklav	*ICklav	*
*clefF4	*clefG2	*
*k[b-]	*k[b-]	*
*D:	*D:	*
*M2/4	*M2/4	*
4r	8a/L	.
.	8b-/J	.
=1	=1	=1
4FF/	(8cc\L	.
.	8dd\	.
4F\ 4A 4c	8cc\	.
.	8bn\J)	.
=2	=2	=2
4F\	(8cc\L	.
.	8aa\	.
4A\ 4c	8ee\	.
.	8ff\J)	.
=3	=3	=3
4F\	(8cc\L	.
.	8aa\	.
4A\ 4c	8ee\	.
.	8ff\J)	.
=4	=4	=4
4F\	(8cc\L	.
.	8aa\	.
4A\ 4c	8ee\	.
.	8ff\J)	.
=5	=5	=5
4C/	8cc\L	.
.	8bb-\	.
4E\ 4G 4B- 4c	8ff#X\	.
.	8gg\J	.
=6	=6	=6
4C/	8cc\L	.
.	8gg\	.
4E\ 4A 4B- 4c	8dd#X\	.
.	8ee\J	.
=7	=7	=7
4C/	8g\L	.
.	8ee\	.
4E\ 4G 4B- 4c	8bn\	.
.	8cc\J	.
=8	=8	=8
4C/	8e/L	.
.	8dd/	.
4r	8cc/	.
.	8bn/J	.
=9:|!|:	=9:|!|:	=9:|!|:
4FF/	(8cc\L	.
.	8a\	.
4A\ 4c 4f	8ff\	.
.	8aa\J	.
=10	=10	=10
4A\ 4c 4f	8gg\L	.
.	8ff\	.
4A\ 4c 4f	8ee\	.
.	8dd\J)	.
!LO:LB:g=original	!LO:LB:g=original	!
=11	=11	=11
4BB-/	(8cc#X\L	.
.	8dd\	.
4G\ 4B- 4d	8ee\	.
.	8dd\J	.
=12	=12	=12
4G\ 4B- 4d	8cc\L	.
.	8b-\	.
4G\ 4B- 4d	8a\	.
.	8g\J)	.
=13	=13	=13
4C/	8f/L	.
.	8e/	.
4G\ 4B- 4c	8g/	<
.	8b-/J	.
=14	=14	=14
4C/	8cc#X\L	.
.	8dd\	[
4G\ 4B- 4c	8ccn\	.
.	8b-\J	>
=15	=15	=15
4F\	8b-\L	.
.	8a\	.
4A\ 4c	8dd\	]
.	8cc\J	.
=16	=16	=16
2F\ 2A 2c	2cc\	.
=17	=17	=17
4FF/ 4F	(8a\L	.
.	8cc\	.
4A\ 4c 4f	8ff\	.
.	8aa\J	.
=18	=18	=18
4A\ 4c 4f	8gg\L	.
.	8ff\	.
4A\ 4c 4f	8ee\	.
.	8dd\J)	.
=19	=19	=19
4BB-/	8cc#X\L	.
.	8dd\	.
4G\ 4B- 4d	8ee\	.
.	8dd\J	.
=20	=20	=20
4G\ 4B- 4d	8cc/L	.
.	8b-/	.
4G\ 4B- 4d	8a/	.
.	8g/J	.
=21	=21	=21
4C/	8f/L	.
.	8e/	.
4G\ 4B- 4c	8g/	.
.	8b-/J	.
=22	=22	=22
4G\ 4B- 4c	8cc#X\L	.
.	8dd\	.
4G\ 4B- 4c	8ccn\	.
.	8b-\J	.
=23	=23	=23
4F\ 4A 4c	8a/L	.
.	8cc/	.
4C\ 4G 4B- 4c	8b-/	.
.	8g/J	.
=24	=24	=24
4F\ 4A 4c	4f/	.
=:|!	=:|!	=:|!
*-	*-	*-
!!!system-decoration: [(s1,s2)]
!!!ENC: Berenika Jozajtis
!!!END: 2022-07-27
!!!ENC: Julita Ruszuk
!!!END: 2022-08-24
!!!YEC: Copyright 2022 Narodowy Instytut Fryderyka Chopina (https://polishscores.org)
!!!YEM: Licence CC BY 4.0 (https://creativecommons.org/licenses/by/4.0)
